ix/export_bold.svg

<svg viewBox="0 0 24 24" fill="none" xmlns="http://www.w3.org/2000/svg" height="1em" width="1em">
  <path d="M16.19 2H7.81C4.17 2 2 4.17 2 7.81v8.37C2 19.83 4.17 22 7.81 22h8.37c3.64 0 5.81-2.17 5.81-5.81V7.81C22 4.17 19.83 2 16.19 2Zm1.06 10.33c0 .41-.34.75-.75.75s-.75-.34-.75-.75V9.31l-7.72 7.72c-.15.15-.34.22-.53.22s-.38-.07-.53-.22a.754.754 0 0 1 0-1.06l7.72-7.72h-3.02c-.41 0-.75-.34-.75-.75s.34-.75.75-.75h4.83c.41 0 .75.34.75.75v4.83Z" fill="#292D32"/>
</svg>

<svg viewBox="0 0 24 24" fill="none" xmlns="http://www.w3.org/2000/svg" height="1em" width="1em">
  <path d="M16.19 2H7.81C4.17 2 2 4.17 2 7.81V16.18C2 19.83 4.17 22 7.81 22H16.18C19.82 22 21.99 19.83 21.99 16.19V7.81C22 4.17 19.83 2 16.19 2ZM17.25 12.33C17.25 12.74 16.91 13.08 16.5 13.08C16.09 13.08 15.75 12.74 15.75 12.33V9.31L8.03 17.03C7.88 17.18 7.69 17.25 7.5 17.25C7.31 17.25 7.12 17.18 6.97 17.03C6.68 16.74 6.68 16.26 6.97 15.97L14.69 8.25H11.67C11.26 8.25 10.92 7.91 10.92 7.5C10.92 7.09 11.26 6.75 11.67 6.75H16.5C16.91 6.75 17.25 7.09 17.25 7.5V12.33Z" fill="#292D32"/>
</svg>
